; generated by Slic3r 1.2.9 on 2017-11-20 at 00:01:02

; external perimeters extrusion width = 0.50mm
; perimeters extrusion width = 0.72mm
; infill extrusion width = 0.72mm
; solid infill extrusion width = 0.72mm
; top infill extrusion width = 0.72mm

M107
M104 S200 ; set temperature
G28 ; home all axes
G1 Z5 F5000 ; lift nozzle

M109 S200 ; wait for temperature to be reached
G21 ; set units to millimeters
G90 ; use absolute coordinates
M82 ; use absolute distances for extrusion
G92 E0
G1 Z0.350 F7800.000
G1 E-2.00000 F2400.00000
G92 E0
G1 X26.668 Y34.274 F7800.000
G1 E2.00000 F2400.00000
G1 X28.820 Y33.481 E2.07096 F1800.000
G1 X30.000 Y33.375 E2.10761
G1 X170.000 Y33.375 E6.43940
G1 X172.259 Y33.772 E6.51036
G1 X174.247 Y34.915 E6.58132 F1800.000
G1 X175.726 Y36.668 E6.65228
G1 X176.519 Y38.820 E6.72325
G1 X176.625 Y40.000 E6.75990
G1 X176.625 Y160.000 E10.47286
G1 X176.228 Y162.259 E10.54382
G1 X175.085 Y164.247 E10.61478
G1 X173.332 Y165.726 E10.68574
G1 X171.180 Y166.519 E10.75670
G1 X170.000 Y166.625 E10.79336
G1 X30.000 Y166.625 E15.12514
G1 X27.741 Y166.228 E15.19610
G1 X25.753 Y165.085 E15.26706
G1 X24.274 Y163.332 E15.33803
G1 X23.481 Y161.180 E15.40899
G1 X23.375 Y160.000 E15.44564
G1 X23.375 Y40.000 E19.15860
G1 X23.772 Y37.741 E19.22956
G1 X24.915 Y35.753 E19.30052
G1 X26.611 Y34.322 E19.36916
G1 E17.36916 F2400.00000
G92 E0
G1 X45.887 Y48.400 F7800.000
G1 E2.00000 F2400.00000
G1 X148.053 Y48.400 E5.16115 F1800.000
G1 X148.053 Y151.600 E8.35428
G1 X45.887 Y151.600 E11.51544
G1 X45.887 Y48.475 E14.70625
G1 X46.512 Y49.025 F7800.000
G1 X147.428 Y49.025 E17.82873 F1800.000
G1 X147.428 Y150.975 E20.98319
G1 X46.512 Y150.975 E24.10567
G1 X46.512 Y49.100 E27.25781
G1 X47.136 Y49.650 F7800.000
G1 X146.803 Y49.650 E30.34163 F1800.000
G1 X146.803 Y150.350 E33.45742
G1 X47.136 Y150.350 E36.54123
G1 X47.136 Y49.725 E39.65470
G1 X47.136 Y49.150 F7800.000
G1 X31.600 Y41.600 F7800.000
G1 X168.400 Y41.600 E43.88749 F1800.000
G1 X168.400 Y158.400 E47.50144
G1 X31.600 Y158.400 E51.73423
G1 X31.600 Y41.675 E55.34587
G1 X30.975 Y40.975 F7800.000
G1 X169.025 Y40.975 E59.61732 F1800.000
G1 X169.025 Y159.025 E63.26995
G1 X30.975 Y159.025 E67.54141
G1 X30.975 Y41.050 E71.19172
G1 X30.350 Y40.350 F7800.000
G1 X169.650 Y40.350 E75.50184 F1800.000
G1 X169.650 Y159.650 E79.19314
G1 X30.350 Y159.650 E83.50327
G1 X30.350 Y40.425 E87.19224
G1 X30.783 Y40.600 F7800.000
G1 X31.978 Y139.122 F7800.000
G1 X50.878 Y158.022 E88.02091 F1800.000
G1 X49.993 Y158.022 E88.04836
G1 X31.978 Y140.007 E88.83820
G1 X31.978 Y140.893 E88.86565
G1 X49.107 Y158.022 E89.61667
G1 X48.222 Y158.022 E89.64412
G1 X31.978 Y141.778 E90.35631
G1 X31.978 Y142.664 E90.38376
G1 X47.336 Y158.022 E91.05713
G1 X46.451 Y158.022 E91.08459
G1 X31.978 Y143.549 E91.71913
G1 X31.978 Y144.434 E91.74658
G1 X45.566 Y158.022 E92.34231
G1 X44.680 Y158.022 E92.36976
G1 X31.978 Y145.320 E92.92666
G1 X31.978 Y146.205 E92.95411
G1 X43.795 Y158.022 E93.47219
G1 X42.909 Y158.022 E93.49964
G1 X31.978 Y147.091 E93.97889
G1 X31.978 Y147.976 E94.00634
G1 X42.024 Y158.022 E94.44677
G1 X41.138 Y158.022 E94.47422
G1 X31.978 Y148.862 E94.87583
G1 X31.978 Y149.747 E94.90328
G1 X40.253 Y158.022 E95.26606
G1 X39.367 Y158.022 E95.29351
G1 X31.978 Y150.633 E95.61747
G1 X31.978 Y151.518 E95.64493
G1 X38.482 Y158.022 E95.93006
G1 X37.596 Y158.022 E95.95751
G1 X31.978 Y152.404 E96.20382
G1 X31.978 Y153.289 E96.23128
G1 X36.711 Y158.022 E96.43876
G1 X35.825 Y158.022 E96.46622
G1 X31.978 Y154.175 E96.63488
G1 X31.978 Y155.060 E96.66233
G1 X34.940 Y158.022 E96.79218
G1 X34.054 Y158.022 E96.81963
G1 X31.978 Y155.946 E96.91065
G1 X31.978 Y156.831 E96.93810
G1 X33.169 Y158.022 E96.99029
G1 E94.99029 F2400.00000
G92 E0
G1 X141.152 Y41.978 F7800.000
G1 E2.00000 F2400.00000
G1 X147.195 Y48.022 E2.26496 F1800.000
G1 X146.310 Y48.022 E2.29242
G1 X140.267 Y41.978 E2.55738
G1 X139.381 Y41.978 E2.58483
G1 X145.424 Y48.022 E2.84980
G1 X144.539 Y48.022 E2.87725
G1 X138.496 Y41.978 E3.14222
G1 X137.610 Y41.978 E3.16967
G1 X143.653 Y48.022 E3.43463
G1 X142.768 Y48.022 E3.46209
G1 X136.725 Y41.978 E3.72705
G1 X135.839 Y41.978 E3.75450
G1 X141.883 Y48.022 E4.01947
G1 X140.997 Y48.022 E4.04692
G1 X134.954 Y41.978 E4.31188
G1 X134.068 Y41.978 E4.33934
G1 X140.112 Y48.022 E4.60430
G1 X139.226 Y48.022 E4.63175
G1 X133.183 Y41.978 E4.89672
G1 X132.297 Y41.978 E4.92417
G1 X138.341 Y48.022 E5.18914
G1 X137.455 Y48.022 E5.21659
G1 X131.412 Y41.978 E5.48155
G1 X130.526 Y41.978 E5.50901
G1 X136.570 Y48.022 E5.77397
G1 X135.684 Y48.022 E5.80142
G1 X129.641 Y41.978 E6.06639
G1 X128.755 Y41.978 E6.09384
G1 X134.799 Y48.022 E6.35880
G1 X133.913 Y48.022 E6.38626
G1 X127.870 Y41.978 E6.65122
G1 X126.984 Y41.978 E6.67867
G1 X133.028 Y48.022 E6.94364
G1 X132.142 Y48.022 E6.97109
G1 X126.099 Y41.978 E7.23606
G1 X125.213 Y41.978 E7.26351
G1 X131.257 Y48.022 E7.52847
G1 X130.371 Y48.022 E7.55592
G1 X124.328 Y41.978 E7.82089
G1 X123.442 Y41.978 E7.84834
G1 X129.486 Y48.022 E8.11331
G1 X128.600 Y48.022 E8.14076
G1 X122.557 Y41.978 E8.40572
G1 X121.672 Y41.978 E8.43318
G1 X127.715 Y48.022 E8.69814
G1 X126.829 Y48.022 E8.72559
G1 X120.786 Y41.978 E8.99056
G1 X119.901 Y41.978 E9.01801
G1 X125.944 Y48.022 E9.28298
G1 X125.058 Y48.022 E9.31043
G1 X119.015 Y41.978 E9.57539
G1 X118.130 Y41.978 E9.60284
G1 X124.173 Y48.022 E9.86781
G1 X123.287 Y48.022 E9.89526
G1 X117.244 Y41.978 E10.16023
G1 X116.359 Y41.978 E10.18768
G1 X122.402 Y48.022 E10.45264
G1 X121.516 Y48.022 E10.48010
G1 X115.473 Y41.978 E10.74506
G1 X114.588 Y41.978 E10.77251
G1 X120.631 Y48.022 E11.03748
G1 X119.745 Y48.022 E11.06493
G1 X113.702 Y41.978 E11.32989
G1 X112.817 Y41.978 E11.35735
G1 X118.860 Y48.022 E11.62231
G1 X117.975 Y48.022 E11.64976
G1 X111.931 Y41.978 E11.91473
G1 X111.046 Y41.978 E11.94218
G1 X117.089 Y48.022 E12.20715
G1 X116.204 Y48.022 E12.23460
G1 X110.160 Y41.978 E12.49956
G1 X109.275 Y41.978 E12.52702
G1 X115.318 Y48.022 E12.79198
G1 X114.433 Y48.022 E12.81943
G1 X108.389 Y41.978 E13.08440
G1 X107.504 Y41.978 E13.11185
G1 X113.547 Y48.022 E13.37681
G1 X112.662 Y48.022 E13.40427
G1 X106.618 Y41.978 E13.66923
G1 X105.733 Y41.978 E13.69668
G1 X111.776 Y48.022 E13.96165
G1 X110.891 Y48.022 E13.98910
G1 X104.847 Y41.978 E14.25407
G1 X103.962 Y41.978 E14.28152
G1 X110.005 Y48.022 E14.54648
G1 X109.120 Y48.022 E14.57394
G1 X103.076 Y41.978 E14.83890
G1 X102.191 Y41.978 E14.86635
G1 X108.234 Y48.022 E15.13132
G1 X107.349 Y48.022 E15.15877
G1 X101.305 Y41.978 E15.42373
G1 X100.420 Y41.978 E15.45119
G1 X106.463 Y48.022 E15.71615
G1 X105.578 Y48.022 E15.74360
G1 X99.535 Y41.978 E16.00857
G1 X98.649 Y41.978 E16.03602
G1 X104.692 Y48.022 E16.30099
G1 X103.807 Y48.022 E16.32844
G1 X97.764 Y41.978 E16.59340
G1 X96.878 Y41.978 E16.62085
G1 X102.921 Y48.022 E16.88582
G1 X102.036 Y48.022 E16.91327
G1 X95.993 Y41.978 E17.17824
G1 X95.107 Y41.978 E17.20569
G1 X101.150 Y48.022 E17.47065
G1 X100.265 Y48.022 E17.49811
G1 X94.222 Y41.978 E17.76307
G1 X93.336 Y41.978 E17.79052
G1 X99.379 Y48.022 E18.05549
G1 X98.494 Y48.022 E18.08294
G1 X92.451 Y41.978 E18.34790
G1 X91.565 Y41.978 E18.37536
G1 X97.608 Y48.022 E18.64032
G1 X96.723 Y48.022 E18.66777
G1 X90.680 Y41.978 E18.93274
G1 X89.794 Y41.978 E18.96019
G1 X95.838 Y48.022 E19.22516
G1 X94.952 Y48.022 E19.25261
G1 X88.909 Y41.978 E19.51757
G1 X88.023 Y41.978 E19.54503
G1 X94.067 Y48.022 E19.80999
G1 X93.181 Y48.022 E19.83744
G1 X87.138 Y41.978 E20.10241
G1 X86.252 Y41.978 E20.12986
G1 X92.296 Y48.022 E20.39482
G1 X91.410 Y48.022 E20.42228
G1 X85.367 Y41.978 E20.68724
G1 X84.481 Y41.978 E20.71469
G1 X90.525 Y48.022 E20.97966
G1 X89.639 Y48.022 E21.00711
G1 X83.596 Y41.978 E21.27208
G1 X82.710 Y41.978 E21.29953
G1 X88.754 Y48.022 E21.56449
G1 X87.868 Y48.022 E21.59195
G1 X81.825 Y41.978 E21.85691
G1 X80.939 Y41.978 E21.88436
G1 X86.983 Y48.022 E22.14933
G1 X86.097 Y48.022 E22.17678
G1 X80.054 Y41.978 E22.44174
G1 X79.168 Y41.978 E22.46920
G1 X85.212 Y48.022 E22.73416
G1 X84.326 Y48.022 E22.76161
G1 X78.283 Y41.978 E23.02658
G1 X77.398 Y41.978 E23.05403
G1 X83.441 Y48.022 E23.31900
G1 X82.555 Y48.022 E23.34645
G1 X76.512 Y41.978 E23.61141
G1 X75.627 Y41.978 E23.63886
G1 X81.670 Y48.022 E23.90383
G1 X80.784 Y48.022 E23.93128
G1 X74.741 Y41.978 E24.19625
G1 X73.856 Y41.978 E24.22370
G1 X79.899 Y48.022 E24.48866
G1 X79.013 Y48.022 E24.51612
G1 X72.970 Y41.978 E24.78108
G1 X72.085 Y41.978 E24.80853
G1 X78.128 Y48.022 E25.07350
G1 X77.242 Y48.022 E25.10095
G1 X71.199 Y41.978 E25.36592
G1 X70.314 Y41.978 E25.39337
G1 X76.357 Y48.022 E25.65833
G1 X75.471 Y48.022 E25.68578
G1 X69.428 Y41.978 E25.95075
G1 X68.543 Y41.978 E25.97820
G1 X74.586 Y48.022 E26.24317
G1 X73.701 Y48.022 E26.27062
G1 X67.657 Y41.978 E26.53558
G1 X66.772 Y41.978 E26.56304
G1 X72.815 Y48.022 E26.82800
G1 X71.930 Y48.022 E26.85545
G1 X65.886 Y41.978 E27.12042
G1 X65.001 Y41.978 E27.14787
G1 X71.044 Y48.022 E27.41283
G1 X70.159 Y48.022 E27.44029
G1 X64.115 Y41.978 E27.70525
G1 X63.230 Y41.978 E27.73270
G1 X69.273 Y48.022 E27.99767
G1 X68.388 Y48.022 E28.02512
G1 X62.344 Y41.978 E28.29009
G1 X61.459 Y41.978 E28.31754
G1 X67.502 Y48.022 E28.58250
G1 X66.617 Y48.022 E28.60996
G1 X60.573 Y41.978 E28.87492
G1 X59.688 Y41.978 E28.90237
G1 X65.731 Y48.022 E29.16734
G1 X64.846 Y48.022 E29.19479
G1 X58.802 Y41.978 E29.45975
G1 X57.917 Y41.978 E29.48721
G1 X63.960 Y48.022 E29.75217
G1 X63.075 Y48.022 E29.77962
G1 X57.031 Y41.978 E30.04459
G1 X56.146 Y41.978 E30.07204
G1 X62.189 Y48.022 E30.33701
G1 X61.304 Y48.022 E30.36446
G1 X55.260 Y41.978 E30.62942
G1 X54.375 Y41.978 E30.65687
G1 X60.418 Y48.022 E30.92184
G1 X59.533 Y48.022 E30.94929
G1 X53.490 Y41.978 E31.21426
G1 X52.604 Y41.978 E31.24171
G1 X58.647 Y48.022 E31.50667
G1 X57.762 Y48.022 E31.53413
G1 X51.719 Y41.978 E31.79909
G1 X50.833 Y41.978 E31.82654
G1 X56.876 Y48.022 E32.09151
G1 X55.991 Y48.022 E32.11896
G1 X49.948 Y41.978 E32.38392
G1 X49.062 Y41.978 E32.41138
G1 X55.105 Y48.022 E32.67634
G1 X54.220 Y48.022 E32.70379
G1 X48.177 Y41.978 E32.96876
G1 X47.291 Y41.978 E32.99621
G1 X53.334 Y48.022 E33.26118
G1 X52.449 Y48.022 E33.28863
G1 X46.406 Y41.978 E33.55359
G1 X45.520 Y41.978 E33.58105
G1 X51.563 Y48.022 E33.84601
G1 X50.678 Y48.022 E33.87346
G1 X44.635 Y41.978 E34.13843
G1 X43.749 Y41.978 E34.16588
G1 X49.793 Y48.022 E34.43084
G1 X48.907 Y48.022 E34.45830
G1 X42.864 Y41.978 E34.72326
G1 X41.978 Y41.978 E34.75071
G1 X48.022 Y48.022 E35.01568
G1 X47.136 Y48.022 E35.04313
G1 X41.093 Y41.978 E35.30810
G1 X40.207 Y41.978 E35.33555
G1 X46.251 Y48.022 E35.60051
G1 X45.508 Y48.165 E35.62395
G1 X39.322 Y41.978 E35.89519
G1 X38.436 Y41.978 E35.92264
G1 X45.508 Y49.050 E36.23270
G1 X45.508 Y49.936 E36.26015
G1 X37.551 Y41.978 E36.60903
G1 X36.665 Y41.978 E36.63649
G1 X45.508 Y50.821 E37.02419
G1 X45.508 Y51.707 E37.05164
G1 X35.780 Y41.978 E37.47817
G1 X34.894 Y41.978 E37.50563
G1 X45.508 Y52.592 E37.97098
G1 X45.508 Y53.478 E37.99843
G1 X34.009 Y41.978 E38.50261
G1 X33.123 Y41.978 E38.53006
G1 X45.508 Y54.363 E39.07306
G1 X45.508 Y55.249 E39.10051
G1 X32.238 Y41.978 E39.68233
G1 X31.978 Y42.604 E39.70334
G1 X45.508 Y56.134 E40.29654
G1 X45.508 Y57.019 E40.32400
G1 X31.978 Y43.490 E40.91720
G1 X31.978 Y44.375 E40.94465
G1 X45.508 Y57.905 E41.53786
G1 X45.508 Y58.790 E41.56531
G1 X31.978 Y45.261 E42.15852
G1 X31.978 Y46.146 E42.18597
G1 X45.508 Y59.676 E42.77918
G1 X45.508 Y60.561 E42.80663
G1 X31.978 Y47.032 E43.39984
G1 X31.978 Y47.917 E43.42729
G1 X45.508 Y61.447 E44.02049
G1 X45.508 Y62.332 E44.04795
G1 X31.978 Y48.803 E44.64115
G1 X31.978 Y49.688 E44.66860
G1 X45.508 Y63.218 E45.26181
G1 X45.508 Y64.103 E45.28926
G1 X31.978 Y50.574 E45.88247
G1 X31.978 Y51.459 E45.90992
G1 X45.508 Y64.989 E46.50313
G1 X45.508 Y65.874 E46.53058
G1 X31.978 Y52.344 E47.12379
G1 X31.978 Y53.230 E47.15124
G1 X45.508 Y66.760 E47.74444
G1 X45.508 Y67.645 E47.77190
G1 X31.978 Y54.115 E48.36510
G1 X31.978 Y55.001 E48.39256
G1 X45.508 Y68.531 E48.98576
G1 X45.508 Y69.416 E49.01321
G1 X31.978 Y55.886 E49.60642
G1 X31.978 Y56.772 E49.63387
G1 X45.508 Y70.302 E50.22708
G1 X45.508 Y71.187 E50.25453
G1 X31.978 Y57.657 E50.84774
G1 X31.978 Y58.543 E50.87519
G1 X45.508 Y72.073 E51.46840
G1 X45.508 Y72.958 E51.49585
G1 X31.978 Y59.428 E52.08905
G1 X31.978 Y60.314 E52.11651
G1 X45.508 Y73.844 E52.70971
G1 X45.508 Y74.729 E52.73716
G1 X31.978 Y61.199 E53.33037
G1 X31.978 Y62.085 E53.35782
G1 X45.508 Y75.615 E53.95103
G1 X45.508 Y76.500 E53.97848
G1 X31.978 Y62.970 E54.57169
G1 X31.978 Y63.856 E54.59914
G1 X45.508 Y77.386 E55.19235
G1 X45.508 Y78.271 E55.21980
G1 X31.978 Y64.741 E55.81300
G1 X31.978 Y65.627 E55.84046
G1 X45.508 Y79.156 E56.43366
G1 X45.508 Y80.042 E56.46112
G1 X31.978 Y66.512 E57.05432
G1 X31.978 Y67.398 E57.08177
G1 X45.508 Y80.927 E57.67498
G1 X45.508 Y81.813 E57.70243
G1 X31.978 Y68.283 E58.29564
G1 X31.978 Y69.169 E58.32309
G1 X45.508 Y82.698 E58.91630
G1 X45.508 Y83.584 E58.94375
G1 X31.978 Y70.054 E59.53696
G1 X31.978 Y70.940 E59.56441
G1 X45.508 Y84.469 E60.15761
G1 X45.508 Y85.355 E60.18507
G1 X31.978 Y71.825 E60.77827
G1 X31.978 Y72.711 E60.80572
G1 X45.508 Y86.240 E61.39893
G1 X45.508 Y87.126 E61.42638
G1 X31.978 Y73.596 E62.01959
G1 X31.978 Y74.481 E62.04704
G1 X45.508 Y88.011 E62.64025
G1 X45.508 Y88.897 E62.66770
G1 X31.978 Y75.367 E63.26091
G1 X31.978 Y76.252 E63.28836
G1 X45.508 Y89.782 E63.88156
G1 X45.508 Y90.668 E63.90902
G1 X31.978 Y77.138 E64.50222
G1 X31.978 Y78.023 E64.52967
G1 X45.508 Y91.553 E65.12288
G1 X45.508 Y92.439 E65.15033
G1 X31.978 Y78.909 E65.74354
G1 X31.978 Y79.794 E65.77099
G1 X45.508 Y93.324 E66.36420
G1 X45.508 Y94.210 E66.39165
G1 X31.978 Y80.680 E66.98486
G1 X31.978 Y81.565 E67.01231
G1 X45.508 Y95.095 E67.60551
G1 X45.508 Y95.981 E67.63297
G1 X31.978 Y82.451 E68.22617
G1 X31.978 Y83.336 E68.25363
G1 X45.508 Y96.866 E68.84683
G1 X45.508 Y97.752 E68.87428
G1 X31.978 Y84.222 E69.46749
G1 X31.978 Y85.107 E69.49494
G1 X45.508 Y98.637 E70.08815
G1 X45.508 Y99.523 E70.11560
G1 X31.978 Y85.993 E70.70881
G1 X31.978 Y86.878 E70.73626
G1 X45.508 Y100.408 E71.32947
G1 X45.508 Y101.293 E71.35692
G1 X31.978 Y87.764 E71.95012
G1 X31.978 Y88.649 E71.97758
G1 X45.508 Y102.179 E72.57078
G1 X45.508 Y103.064 E72.59823
G1 X31.978 Y89.535 E73.19144
G1 X31.978 Y90.420 E73.21889
G1 X45.508 Y103.950 E73.81210
G1 X45.508 Y104.835 E73.83955
G1 X31.978 Y91.306 E74.43276
G1 X31.978 Y92.191 E74.46021
G1 X45.508 Y105.721 E75.05342
G1 X45.508 Y106.606 E75.08087
G1 X31.978 Y93.077 E75.67407
G1 X31.978 Y93.962 E75.70153
G1 X45.508 Y107.492 E76.29473
G1 X45.508 Y108.377 E76.32218
G1 X31.978 Y94.848 E76.91539
G1 X31.978 Y95.733 E76.94284
G1 X45.508 Y109.263 E77.53605
G1 X45.508 Y110.148 E77.56350
G1 X31.978 Y96.619 E78.15671
G1 X31.978 Y97.504 E78.18416
G1 X45.508 Y111.034 E78.77737
G1 X45.508 Y111.919 E78.80482
G1 X31.978 Y98.389 E79.39802
G1 X31.978 Y99.275 E79.42548
G1 X45.508 Y112.805 E80.01868
G1 X45.508 Y113.690 E80.04614
G1 X31.978 Y100.160 E80.63934
G1 X31.978 Y101.046 E80.66679
G1 X45.508 Y114.576 E81.26000
G1 X45.508 Y115.461 E81.28745
G1 X31.978 Y101.931 E81.88066
G1 X31.978 Y102.817 E81.90811
G1 X45.508 Y116.347 E82.50132
G1 X45.508 Y117.232 E82.52877
G1 X31.978 Y103.702 E83.12197
G1 X31.978 Y104.588 E83.14943
G1 X45.508 Y118.118 E83.74263
G1 X45.508 Y119.003 E83.77009
G1 X31.978 Y105.473 E84.36329
G1 X31.978 Y106.359 E84.39074
G1 X45.508 Y119.889 E84.98395
G1 X45.508 Y120.774 E85.01140
G1 X31.978 Y107.244 E85.60461
G1 X31.978 Y108.130 E85.63206
G1 X45.508 Y121.660 E86.22527
G1 X45.508 Y122.545 E86.25272
G1 X31.978 Y109.015 E86.84593
G1 X31.978 Y109.901 E86.87338
G1 X45.508 Y123.431 E87.46658
G1 X45.508 Y124.316 E87.49404
G1 X31.978 Y110.786 E88.08724
G1 X31.978 Y111.672 E88.11469
G1 X45.508 Y125.201 E88.70790
G1 X45.508 Y126.087 E88.73535
G1 X31.978 Y112.557 E89.32856
G1 X31.978 Y113.443 E89.35601
G1 X45.508 Y126.972 E89.94922
G1 X45.508 Y127.858 E89.97667
G1 X31.978 Y114.328 E90.56988
G1 X31.978 Y115.214 E90.59733
G1 X45.508 Y128.743 E91.19053
G1 X45.508 Y129.629 E91.21799
G1 X31.978 Y116.099 E91.81119
G1 X31.978 Y116.985 E91.83864
G1 X45.508 Y130.514 E92.43185
G1 X45.508 Y131.400 E92.45930
